X: 61
M: 4/4
L: 1/8
K: G
dc |\
[B2G2]dd {d}b2[B2D2] | c2{f}e2 a3g | f2f2 b2f2 | agfe d2z2 |
"b."B3B/B/ b2[B2D2] | c2e2 a3g | f2f2 b2f2 | gfga gz |]
P: Var:
"a."AG- G2z2 | "b."d3d/d/ |]


